src/pos-icons/replay.svg

<svg height="24" viewBox="0 0 24 24" width="24" xmlns="http://www.w3.org/2000/svg"><path d="m12 5v-4l-5 5 5 5v-4a6 6 0 0 1 6 6 6 6 0 0 1 -6 6 6 6 0 0 1 -6-6h-2a8 8 0 0 0 8 8 8 8 0 0 0 8-8 8 8 0 0 0 -8-8z"/></svg>

<?xml version="1.0" encoding="UTF-8"?><!DOCTYPE svg PUBLIC "-//W3C//DTD SVG 1.1//EN" "http://www.w3.org/Graphics/SVG/1.1/DTD/svg11.dtd"><svg xmlns="http://www.w3.org/2000/svg" xmlns:xlink="http://www.w3.org/1999/xlink" version="1.1" id="mdi-replay" width="24" height="24" viewBox="0 0 24 24"><path d="M12,5V1L7,6L12,11V7A6,6 0 0,1 18,13A6,6 0 0,1 12,19A6,6 0 0,1 6,13H4A8,8 0 0,0 12,21A8,8 0 0,0 20,13A8,8 0 0,0 12,5Z" /></svg>
